**harm	**harte	**timestamp	**phrase	**leadinstrument	**kern
*M4/4	*M4/4	*	*	*	*
*G:	*G:	*	*	*	*G:
1r;	N	0	.	r	1r;
=1	=1	=1	=1	=1	=1
*>A_intro	*>A_intro	*>A_intro	*>A_intro	*>A_intro	*>A_intro
1I	G:maj	0.325	newline	organ	1G 1b 1dd
=2	=2	=2	=2	=2	=2
2.I	G:maj	1.93	.	organ	2G 2b 2dd
4Vf	D:maj/4	3.134	.	organ	4D 4f# 4a
=3	=3	=3	=3	=3	=3
1I	G:maj	3.535	.	organ	1G 1b 1dd
=4	=4	=4	=4	=4	=4
2.I	G:maj	5.14	.	organ	2G 2b 2dd
4Vf	D:maj/4	6.343	.	organ	4D 4f# 4a
=5	=5	=5	=5	=5	=5
*>B_verse	*>B_verse	*>B_verse	*>B_verse	*>B_verse	*>B_verse
1I	G:maj	6.745	newline	voice	1G 1b 1dd
=6	=6	=6	=6	=6	=6
2.I	G:maj	8.313	.	voice	2G 2b 2dd
4V	D:maj	9.49	.	voice	4D 4f# 4a
=7	=7	=7	=7	=7	=7
1IV	C:maj	9.882	.	voice	1C 1e 1g
=8	=8	=8	=8	=8	=8
1IV	C:maj	11.45	.	voice	1C 1e 1g
=9	=9	=9	=9	=9	=9
1I	G:maj	13.019	newline	voice	1G 1b 1dd
=10	=10	=10	=10	=10	=10
2.I	G:maj	14.573	.	voice	2G 2b 2dd
4IVc	C:maj/5	15.739	.	voice	4c 4e 4G
=11	=11	=11	=11	=11	=11
*M6/4	*M6/4	*M6/4	*M6/4	*M6/4	*M6/4
4V	D:maj	16.127	.	voice	4D 4f# 4a
4Vb	D:maj/3	17.681	.	voice	4d 4F# 4a
1Vb	D:maj/3	18.264	.	voice	1d 1F# 1a
=12	=12	=12	=12	=12	=12
*M4/4	*M4/4	*M4/4	*M4/4	*M4/4	*M4/4
1I	G:maj	18.458	newline	guitar	1G 1b 1dd
=13	=13	=13	=13	=13	=13
1I	G:maj	20.028	.	guitar	1G 1b 1dd
=14	=14	=14	=14	=14	=14
*>B_verse	*>B_verse	*>B_verse	*>B_verse	*>B_verse	*>B_verse
1I	G:maj	21.598	newline	voice	1G 1b 1dd
=15	=15	=15	=15	=15	=15
1I	G:maj	23.158	.	voice	1G 1b 1dd
=16	=16	=16	=16	=16	=16
1IV	C:maj	24.718	.	voice	1C 1e 1g
=17	=17	=17	=17	=17	=17
1IV	C:maj	26.278	.	voice	1C 1e 1g
=18	=18	=18	=18	=18	=18
1I	G:maj	27.838	newline	voice	1G 1b 1dd
=19	=19	=19	=19	=19	=19
1I	G:maj	29.384	.	voice	1G 1b 1dd
=20	=20	=20	=20	=20	=20
*M6/4	*M6/4	*M6/4	*M6/4	*M6/4	*M6/4
4V	D:maj	30.93	.	voice	4D 4f# 4a
4Vb	D:maj/3	32.476	.	voice	4d 4F# 4a
1Vb	D:maj/3	33.056	.	voice	1d 1F# 1a
=21	=21	=21	=21	=21	=21
*M4/4	*M4/4	*M4/4	*M4/4	*M4/4	*M4/4
1I	G:maj	33.249	newline	guitar	1G 1b 1dd
=22	=22	=22	=22	=22	=22
1I	G:maj	34.799	.	guitar	1G 1b 1dd
=23	=23	=23	=23	=23	=23
*>C_chorus	*>C_chorus	*>C_chorus	*>C_chorus	*>C_chorus	*>C_chorus
1IV	C:maj	36.349	newline	voice	1C 1e 1g
=24	=24	=24	=24	=24	=24
1iii	B:min	37.907	.	voice	1B 1dd 1ff#
=25	=25	=25	=25	=25	=25
1V	D:maj	39.465	.	voice	1D 1f# 1a
=26	=26	=26	=26	=26	=26
1V	D:maj	41.023	.	voice	1D 1f# 1a
=27	=27	=27	=27	=27	=27
1IV	C:maj	42.581	newline	voice	1C 1e 1g
=28	=28	=28	=28	=28	=28
1iii	B:min	44.149	.	voice	1B 1dd 1ff#
=29	=29	=29	=29	=29	=29
*M6/4	*M6/4	*M6/4	*M6/4	*M6/4	*M6/4
4V	D:maj	45.717	.	voice	4D 4f# 4a
4Vb	D:maj/3	47.286	.	voice	4d 4F# 4a
1Vb	D:maj/3	47.874	.	voice	1d 1F# 1a
=30	=30	=30	=30	=30	=30
*M4/4	*M4/4	*M4/4	*M4/4	*M4/4	*M4/4
1I	G:maj	48.07	newline	guitar	1G 1b 1dd
=31	=31	=31	=31	=31	=31
1I	G:maj	49.615	.	guitar	1G 1b 1dd
=32	=32	=32	=32	=32	=32
*>B_verse	*>B_verse	*>B_verse	*>B_verse	*>B_verse	*>B_verse
1I	G:maj	51.161	newline	voice	1G 1b 1dd
=33	=33	=33	=33	=33	=33
1I	G:maj	52.706	.	voice	1G 1b 1dd
=34	=34	=34	=34	=34	=34
1IV	C:maj	54.251	.	voice	1C 1e 1g
=35	=35	=35	=35	=35	=35
1IV	C:maj	55.796	.	voice	1C 1e 1g
=36	=36	=36	=36	=36	=36
1I	G:maj	57.341	newline	voice	1G 1b 1dd
=37	=37	=37	=37	=37	=37
1I	G:maj	58.877	.	voice	1G 1b 1dd
=38	=38	=38	=38	=38	=38
*M6/4	*M6/4	*M6/4	*M6/4	*M6/4	*M6/4
4V	D:maj	60.412	.	voice	4D 4f# 4a
4Vb	D:maj/3	61.948	.	voice	4d 4F# 4a
1Vb	D:maj/3	62.523	.	voice	1d 1F# 1a
=39	=39	=39	=39	=39	=39
*M4/4	*M4/4	*M4/4	*M4/4	*M4/4	*M4/4
1I	G:maj	62.715	newline	guitar	1G 1b 1dd
=40	=40	=40	=40	=40	=40
1I	G:maj	64.285	.	guitar	1G 1b 1dd
=41	=41	=41	=41	=41	=41
*>D_bridge	*>D_bridge	*>D_bridge	*>D_bridge	*>D_bridge	*>D_bridge
1IV	C:maj	65.855	newline	voice	1C 1e 1g
=42	=42	=42	=42	=42	=42
1IV	C:maj	67.389	.	voice	1C 1e 1g
=43	=43	=43	=43	=43	=43
1Ib	G:maj/3	68.922	.	voice	1g 1B 1dd
=44	=44	=44	=44	=44	=44
1Ib	G:maj/3	70.456	.	voice	1g 1B 1dd
=45	=45	=45	=45	=45	=45
1ii7	A:min7	71.99	newline	voice	1A 1cc 1ee 1gg
=46	=46	=46	=46	=46	=46
1ii7	A:min7	73.531	.	voice	1A 1cc 1ee 1gg
=47	=47	=47	=47	=47	=47
1I	G:maj	75.072	.	voice	1G 1b 1dd
=48	=48	=48	=48	=48	=48
1I	G:maj	76.613	.	voice	1G 1b 1dd
=49	=49	=49	=49	=49	=49
1IV	C:maj	78.154	newline	voice	1C 1e 1g
=50	=50	=50	=50	=50	=50
1IV	C:maj	79.696	.	voice	1C 1e 1g
=51	=51	=51	=51	=51	=51
1Ib	G:maj/3	81.237	.	voice	1g 1B 1dd
=52	=52	=52	=52	=52	=52
1Ib	G:maj/3	82.779	.	voice	1g 1B 1dd
=53	=53	=53	=53	=53	=53
1ii7	A:min7	84.32	newline	voice	1A 1cc 1ee 1gg
=54	=54	=54	=54	=54	=54
1ii7	A:min7	85.864	.	voice	1A 1cc 1ee 1gg
=55	=55	=55	=55	=55	=55
1I	G:maj	87.407	.	voice	1G 1b 1dd
=56	=56	=56	=56	=56	=56
1I	G:maj	88.951	.	voice	1G 1b 1dd
=57	=57	=57	=57	=57	=57
*>C_chorus	*>C_chorus	*>C_chorus	*>C_chorus	*>C_chorus	*>C_chorus
1IV	C:maj	90.494	newline	voice	1C 1e 1g
=58	=58	=58	=58	=58	=58
1iii	B:min	92.043	.	voice	1B 1dd 1ff#
=59	=59	=59	=59	=59	=59
1V	D:maj	93.593	.	voice	1D 1f# 1a
=60	=60	=60	=60	=60	=60
1V	D:maj	95.142	.	voice	1D 1f# 1a
=61	=61	=61	=61	=61	=61
1IV	C:maj	96.691	newline	voice	1C 1e 1g
=62	=62	=62	=62	=62	=62
1iii	B:min	98.266	.	voice	1B 1dd 1ff#
=63	=63	=63	=63	=63	=63
*M6/4	*M6/4	*M6/4	*M6/4	*M6/4	*M6/4
4V	D:maj	99.842	.	voice	4D 4f# 4a
4Vb	D:maj/3	101.417	.	voice	4d 4F# 4a
1Vb	D:maj/3	102.007	.	voice	1d 1F# 1a
=64	=64	=64	=64	=64	=64
*M4/4	*M4/4	*M4/4	*M4/4	*M4/4	*M4/4
1I	G:maj	102.204	newline	guitar	1G 1b 1dd
=65	=65	=65	=65	=65	=65
1I	G:maj	103.727	.	guitar	1G 1b 1dd
=66	=66	=66	=66	=66	=66
*>B_verse	*>B_verse	*>B_verse	*>B_verse	*>B_verse	*>B_verse
1I	G:maj	105.25	newline	voice	1G 1b 1dd
=67	=67	=67	=67	=67	=67
1I	G:maj	106.794	.	voice	1G 1b 1dd
=68	=68	=68	=68	=68	=68
1IV	C:maj	108.338	.	voice	1C 1e 1g
=69	=69	=69	=69	=69	=69
1IV	C:maj	109.882	.	voice	1C 1e 1g
=70	=70	=70	=70	=70	=70
1I	G:maj	111.426	newline	voice	1G 1b 1dd
=71	=71	=71	=71	=71	=71
1I	G:maj	112.975	.	voice	1G 1b 1dd
=72	=72	=72	=72	=72	=72
*M6/4	*M6/4	*M6/4	*M6/4	*M6/4	*M6/4
4V	D:maj	114.523	.	voice	4D 4f# 4a
4Vb	D:maj/3	116.071	.	voice	4d 4F# 4a
1Vb	D:maj/3	116.652	.	voice	1d 1F# 1a
=73	=73	=73	=73	=73	=73
*M4/4	*M4/4	*M4/4	*M4/4	*M4/4	*M4/4
1I	G:maj	116.846	newline	guitar	1G 1b 1dd
=74	=74	=74	=74	=74	=74
1I	G:maj	118.371	.	guitar	1G 1b 1dd
=75	=75	=75	=75	=75	=75
*>D_bridge	*>D_bridge	*>D_bridge	*>D_bridge	*>D_bridge	*>D_bridge
1IV	C:maj	119.897	newline	voice	1C 1e 1g
=76	=76	=76	=76	=76	=76
1IV	C:maj	121.411	.	voice	1C 1e 1g
=77	=77	=77	=77	=77	=77
1Ib	G:maj/3	122.926	.	voice	1g 1B 1dd
=78	=78	=78	=78	=78	=78
1Ib	G:maj/3	124.44	.	voice	1g 1B 1dd
=79	=79	=79	=79	=79	=79
1ii7	A:min7	125.954	newline	voice	1A 1cc 1ee 1gg
=80	=80	=80	=80	=80	=80
1ii7	A:min7	127.49	.	voice	1A 1cc 1ee 1gg
=81	=81	=81	=81	=81	=81
1I	G:maj	129.026	.	voice	1G 1b 1dd
=82	=82	=82	=82	=82	=82
1I	G:maj	130.562	.	voice	1G 1b 1dd
=83	=83	=83	=83	=83	=83
1IV	C:maj	132.098	newline	voice	1C 1e 1g
=84	=84	=84	=84	=84	=84
1IV	C:maj	133.654	.	voice	1C 1e 1g
=85	=85	=85	=85	=85	=85
1Ib	G:maj/3	135.211	.	voice	1g 1B 1dd
=86	=86	=86	=86	=86	=86
1Ib	G:maj/3	136.768	.	voice	1g 1B 1dd
=87	=87	=87	=87	=87	=87
1ii7	A:min7	138.325	newline	voice	1A 1cc 1ee 1gg
=88	=88	=88	=88	=88	=88
1ii7	A:min7	139.871	.	voice	1A 1cc 1ee 1gg
=89	=89	=89	=89	=89	=89
1I	G:maj	141.417	.	voice	1G 1b 1dd
=90	=90	=90	=90	=90	=90
1I	G:maj	142.963	.	voice	1G 1b 1dd
=91	=91	=91	=91	=91	=91
*>C2_chorus	*>C2_chorus	*>C2_chorus	*>C2_chorus	*>C2_chorus	*>C2_chorus
1IV	C:maj	144.509	newline	voice	1C 1e 1g
=92	=92	=92	=92	=92	=92
1iii	B:min	146.047	.	voice	1B 1dd 1ff#
=93	=93	=93	=93	=93	=93
1V	D:maj	147.584	.	voice	1D 1f# 1a
=94	=94	=94	=94	=94	=94
1V	D:maj	149.122	.	voice	1D 1f# 1a
=95	=95	=95	=95	=95	=95
1IV	C:maj	150.659	newline	voice	1C 1e 1g
=96	=96	=96	=96	=96	=96
1iii	B:min	152.205	.	voice	1B 1dd 1ff#
=97	=97	=97	=97	=97	=97
1V	D:maj	153.752	.	voice	1D 1f# 1a
=98	=98	=98	=98	=98	=98
1V	D:maj	155.299	.	voice	1D 1f# 1a
=99	=99	=99	=99	=99	=99
*>C2_chorus	*>C2_chorus	*>C2_chorus	*>C2_chorus	*>C2_chorus	*>C2_chorus
1IV	C:maj	156.845	newline	voice	1C 1e 1g
=100	=100	=100	=100	=100	=100
1iii	B:min	158.389	.	voice	1B 1dd 1ff#
=101	=101	=101	=101	=101	=101
1V	D:maj	159.933	.	voice	1D 1f# 1a
=102	=102	=102	=102	=102	=102
1V	D:maj	161.477	.	voice	1D 1f# 1a
=103	=103	=103	=103	=103	=103
*>_fadeout	*>_fadeout	*>_fadeout	*>_fadeout	*>_fadeout	*>_fadeout
1IV	C:maj	163.02	newline	voice	1C 1e 1g
=104	=104	=104	=104	=104	=104
1iii	B:min	164.555	.	voice	1B 1dd 1ff#
=105	=105	=105	=105	=105	=105
1V	D:maj	166.09	.	voice	1D 1f# 1a
=106	=106	=106	=106	=106	=106
1V	D:maj	167.624	.	voice	1D 1f# 1a
=107	=107	=107	=107	=107	=107
1IV	C:maj	169.159	newline	voice	1C 1e 1g
=108	=108	=108	=108	=108	=108
1iii	B:min	170.517	.	voice	1B 1dd 1ff#
=109	=109	=109	=109	=109	=109
1V	D:maj	171.875	.	voice	1D 1f# 1a
=110	=110	=110	=110	=110	=110
1V	D:maj	173.233	.	voice	1D 1f# 1a
=111	=111	=111	=111	=111	=111
1IV	C:maj	174.591	.	voice	1C 1e 1g
=112	=112	=112	=112	=112	=112
1iii	B:min	175.949	.	voice	1B 1dd 1ff#
1r;	N	177.308	.	r	1r;
1r;	N	181.185	.	r	1r;
*-	*-	*-	*-	*-	*-
!!!OTL: Promises
!!!COC: Eric Clapton
!!!BillboardChartDate: 1978/12/23, 1978/12/23
!!!BillboardPeak: 9, 9
!!!BillboardWeeksOnChart: 18, 18
!!!SampleTargetRank: 14, 13
!!!SampleActualRank: 13, 13
!!!SampleID#: 124, 916
!!!RDF**harmony: **recip + pitch class of root + harmonic quality
!!!RDF**harte: Chris Harte's syntax, used by MIREX
!!!RDF**phrase: newline = linebreak in original McGill transcription
!!!RDF**timestamp: McGill audio timestamp in seconds
!!!RDF**leadinstrument: original McGill primary instrumentation annotation
!!!RDT: 2017/01/12/
!!!ENC: Nathaniel Condit-Schultz
!!!EST: Awating manual error checking and editing.
